X:223
T:McDonagh's
R:reel
Z:transcribed by Dave Marshall
M:C|
K:Edor
|: B2A=c BEED | E2BE E2BE | BAFA D3E |  EDAd BAFA |
B2A=c BEED | E2BE E2BE | BAGF GABc | dBAG FDFA :|
|: d2ef gfed | f~B3 f~B3 | d2ef gfed | ceae ceae |
d2ef gfed | f~B3 fbbf | afge fdec | dBAG FDD2 :|
